docs/img/ico-favorite.svg

<svg width="19" height="18" viewBox="0 0 19 18" fill="none" xmlns="http://www.w3.org/2000/svg">
<path d="M9.49118 2.32154C9.74623 2.04598 9.98579 1.78462 10.2274 1.52534C11.3783 0.292428 12.8257 -0.119658 14.4636 0.0381621C16.7004 0.253599 17.9987 1.60759 18.6638 3.62878C19.24 5.38233 19.0428 7.11543 18.322 8.79842C17.6611 10.3407 16.6728 11.6638 15.5433 12.8901C13.7537 14.8323 11.6941 16.4585 9.53851 17.9716C9.51794 17.9828 9.49651 17.9922 9.47443 18C8.9258 17.5963 8.36042 17.1917 7.80676 16.7713C6.05408 15.4398 4.39312 14.0077 2.95747 12.3331C1.89497 11.0935 0.974445 9.76163 0.448013 8.19971C-0.217881 6.22863 -0.187309 4.28385 0.850899 2.43469C1.52014 1.24185 2.5127 0.394301 3.88427 0.132103C5.80615 -0.236144 7.53496 0.132103 8.89188 1.6602C9.08788 1.87898 9.28429 2.09316 9.49118 2.32154Z" fill="#FF6600"/>
</svg>

<svg width="19" height="18" fill="none" xmlns="http://www.w3.org/2000/svg"><path d="M9.491 2.322l.736-.797C11.378.292 12.826-.12 14.464.038c2.236.216 3.535 1.57 4.2 3.59.576 1.754.379 3.487-.342 5.17-.66 1.543-1.65 2.866-2.779 4.092-1.79 1.942-3.849 3.569-6.004 5.082a.44.44 0 0 1-.065.028c-.548-.404-1.114-.808-1.667-1.229-1.753-1.331-3.414-2.763-4.85-4.438C1.895 11.093.974 9.762.448 8.2c-.666-1.971-.635-3.916.403-5.765C1.52 1.242 2.513.395 3.884.132c1.922-.368 3.651 0 5.008 1.528.196.219.392.433.6.662z" fill="#F60"/></svg>
